icons/svg/old_road_shields/h_mot_shield1.svg

<svg width="18" height="18" viewBox="0 0 18 18" fill="none" xmlns="http://www.w3.org/2000/svg">
<g clip-path="url(#clip0)">
<path fill-rule="evenodd" clip-rule="evenodd" d="M8.572 0C13.285 0 17.142 3.835 17.142 8.585C17.142 13.336 13.285 17.17 8.572 17.17C3.828 17.17 0 13.336 0 8.584C0 3.834 3.828 0 8.572 0Z" fill="#6883E7"/>
<path fill-rule="evenodd" clip-rule="evenodd" d="M8.572 1.05899C12.715 1.05899 16.086 4.43499 16.086 8.58499C16.086 12.735 12.715 16.112 8.572 16.112C4.4 16.112 1.057 12.735 1.057 8.58499C1.057 4.43499 4.4 1.05899 8.572 1.05899Z" fill="white"/>
<path fill-rule="evenodd" clip-rule="evenodd" d="M8.572 2.83301C11.742 2.83301 14.314 5.40901 14.314 8.58501C14.314 11.762 11.742 14.336 8.572 14.336C5.4 14.336 2.829 11.762 2.829 8.58501C2.828 5.40801 5.4 2.83301 8.572 2.83301Z" fill="#6883E7"/>
</g>
<defs>
<clipPath id="clip0">
<path d="M0 0H17.143V17.17H0V0Z" fill="white"/>
</clipPath>
</defs>
</svg>

<?xml version="1.0" encoding="utf-8"?>
<!-- Generator: Adobe Illustrator 16.0.4, SVG Export Plug-In . SVG Version: 6.00 Build 0)  -->
<!DOCTYPE svg PUBLIC "-//W3C//DTD SVG 1.1//EN" "http://www.w3.org/Graphics/SVG/1.1/DTD/svg11.dtd">
<svg version="1.1" id="Слой_1" xmlns="http://www.w3.org/2000/svg" xmlns:xlink="http://www.w3.org/1999/xlink" x="0px" y="0px"
	 width="17.143px" height="17.17px" viewBox="0 0 17.143 17.17" enable-background="new 0 0 17.143 17.17" xml:space="preserve">
<path fill-rule="evenodd" clip-rule="evenodd" fill="#6883E7" d="M8.572,0c4.713,0,8.57,3.835,8.57,8.585
	c0,4.751-3.857,8.585-8.57,8.585C3.828,17.17,0,13.336,0,8.584C0,3.834,3.828,0,8.572,0L8.572,0z"/>
<path fill-rule="evenodd" clip-rule="evenodd" fill="#FFFFFF" d="M8.572,1.059c4.143,0,7.514,3.376,7.514,7.526
	c0,4.15-3.371,7.527-7.514,7.527c-4.172,0-7.515-3.377-7.515-7.527C1.057,4.435,4.4,1.059,8.572,1.059L8.572,1.059z"/>
<path fill-rule="evenodd" clip-rule="evenodd" fill="#6883E7" d="M8.572,2.833c3.17,0,5.742,2.576,5.742,5.752
	c0,3.177-2.572,5.751-5.742,5.751c-3.172,0-5.743-2.574-5.743-5.751C2.828,5.408,5.4,2.833,8.572,2.833L8.572,2.833z"/>
</svg>
